static/img/navigate-line.svg

<svg viewBox="0 0 100 100" xmlns="http://www.w3.org/2000/svg"><g fill="#1e1e1e"><path d="m50 13.8c-19.9 0-36.2 16.2-36.2 36.2s16.3 36.2 36.2 36.2 36.2-16.2 36.2-36.2-16.3-36.2-36.2-36.2zm0 70.6c-19 0-34.4-15.4-34.4-34.4s15.4-34.4 34.4-34.4 34.4 15.4 34.4 34.4-15.4 34.4-34.4 34.4z"/><path d="m68.3 31.7c-.9-.9-2.2-1-3.3-.4l-19.7 11c-.7.4-1.1 1-1.2 1.7v.1h-.1c-.7.1-1.4.5-1.7 1.2l-11 19.7c-.7 1.2-.5 2.5.4 3.3.5.5 1.2.8 1.9.8.5 0 1-.1 1.5-.4l19.8-11c.6-.4 1.1-1 1.2-1.7v-.1h-.1c.7-.1 1.4-.5 1.7-1.2l11-19.7c.6-1.1.5-2.4-.4-3.3zm-14.1 24.1c0 .1-.1.3-.3.4l-19.7 11c-.4.2-.9.2-1.2-.1s-.3-.7-.1-1.2l11-19.7c.1-.2.3-.3.4-.3h.1c.1 0 .2 0 .4.2l9.3 9.3c.1.1.1.2.1.4zm12.9-21.7-11 19.7c-.1.2-.3.3-.4.3s-.3 0-.5-.2l-9.2-9.2c-.2-.2-.2-.4-.2-.5s.1-.3.3-.4l19.7-11c.4-.2.9-.2 1.2.1.3.4.4.8.1 1.2z"/></g></svg>

<svg id="Layer_1" xmlns="http://www.w3.org/2000/svg" viewBox="0 0 100 100"><style>.st2{fill:#1e1e1e}</style><path class="st2" d="M50 13.8C30.1 13.8 13.8 30 13.8 50S30.1 86.2 50 86.2 86.2 70 86.2 50 69.9 13.8 50 13.8zm0 70.6C31 84.4 15.6 69 15.6 50S31 15.6 50 15.6 84.4 31 84.4 50 69 84.4 50 84.4z"/><path class="st2" d="M68.3 31.7c-.9-.9-2.2-1-3.3-.4l-19.7 11c-.7.4-1.1 1-1.2 1.7v.1H44c-.7.1-1.4.5-1.7 1.2L31.3 65c-.7 1.2-.5 2.5.4 3.3.5.5 1.2.8 1.9.8.5 0 1-.1 1.5-.4l19.8-11c.6-.4 1.1-1 1.2-1.7v-.1H56c.7-.1 1.4-.5 1.7-1.2l11-19.7c.6-1.1.5-2.4-.4-3.3zM54.2 55.8c0 .1-.1.3-.3.4l-19.7 11c-.4.2-.9.2-1.2-.1-.3-.3-.3-.7-.1-1.2l11-19.7c.1-.2.3-.3.4-.3h.1c.1 0 .2 0 .4.2l9.3 9.3c.1.1.1.2.1.4zm12.9-21.7l-11 19.7c-.1.2-.3.3-.4.3-.1 0-.3 0-.5-.2L46 44.7c-.2-.2-.2-.4-.2-.5 0-.1.1-.3.3-.4l19.7-11c.4-.2.9-.2 1.2.1.3.4.4.8.1 1.2z"/></svg>
